dist/icons/svgs/paper-plane-solid.svg

<svg xmlns="http://www.w3.org/2000/svg" width="24" height="24" fill="currentcolor" class="icon-paper-plane-solid" viewBox="0 0 24 24">
  <path d="M21.4529 2.23441C21.8436 2.50785 22.0389 2.9766 21.9608 3.44535L19.4608 19.6954C19.4217 20.086 19.1873 20.3985 18.8358 20.5938C18.5233 20.7891 18.0936 20.8282 17.742 20.6719L13.0936 18.7188L10.3983 21.6094C10.0467 22 9.49982 22.1172 9.03107 21.9219C8.56232 21.7657 8.24982 21.2969 8.24982 20.75V17.5079C8.24982 17.3516 8.28888 17.1954 8.40607 17.0782L14.9295 9.92973C15.1639 9.69535 15.1639 9.30473 14.9295 9.07035C14.6951 8.83598 14.3045 8.83598 14.0701 9.07035L6.14044 16.1016L2.66388 14.3829C2.27326 14.1875 1.99982 13.7579 1.99982 13.2891C1.96076 12.8594 2.19513 12.4297 2.62482 12.1954L20.1248 2.19535C20.5154 1.96098 21.0623 1.96098 21.4529 2.23441Z"/>
</svg>

<svg xmlns="http://www.w3.org/2000/svg" width="24" height="24" fill="currentColor" class="icon-paper-plane-solid" viewBox="0 0 24 24">
  <path d="M21.453 2.234c.39.274.586.743.508 1.211l-2.5 16.25c-.04.391-.274.703-.625.899a1.2 1.2 0 0 1-1.094.078l-4.648-1.953-2.696 2.89a1.21 1.21 0 0 1-1.367.313c-.469-.156-.781-.625-.781-1.172v-3.242c0-.156.039-.313.156-.43L14.93 9.93a.613.613 0 0 0 0-.86.613.613 0 0 0-.86 0l-7.93 7.032-3.476-1.72A1.24 1.24 0 0 1 2 13.29c-.04-.43.195-.86.625-1.094l17.5-10c.39-.234.937-.234 1.328.04"/>
</svg>
